_src/_includes/img/icons/payment-methods/elo.svg

<svg height="471" viewBox="0 0 750 471" width="750" xmlns="http://www.w3.org/2000/svg"><g fill="none"><path d="m40 0h670c22.1 0 40 17.9 40 40v391c0 22.1-17.9 40-40 40h-670c-22.1 0-40-17.9-40-40v-391c0-22.1 17.9-40 40-40z" fill="#000"/><path d="m150.7 170.6c6.8-2.3 14.1-3.5 21.7-3.5 33.2 0 60.9 23.6 67.2 54.9l47-9.6c-10.8-53.2-57.8-93.3-114.2-93.3-12.9 0-25.3 2.1-36.9 6z" fill="#fff100"/><path d="m95.2 323 31.8-36c-14.2-12.6-23.1-30.9-23.1-51.4 0-20.4 8.9-38.8 23.1-51.3l-31.8-35.9c-24.1 21.4-39.3 52.5-39.3 87.3 0 34.7 15.2 65.9 39.3 87.3z" fill="#00a3df"/><path d="m239.6 249.4c-6.4 31.3-34 54.8-67.2 54.8-7.6 0-14.9-1.2-21.8-3.5l-15.2 45.5c11.6 3.9 24.1 6 37 6 56.4 0 103.4-40 114.2-93.2z" fill="#ee4023"/><g fill="#fff" transform="translate(342 148)"><path d="m101.2 133.6c-7.8 7.6-18.3 12.2-29.9 12-8-.1-15.4-2.5-21.6-6.5l-15.6 24.8c10.7 6.7 23.2 10.7 36.8 10.9 19.7.3 37.7-7.5 50.8-20.2zm-28.2-101.1c-39.2-.6-71.6 30.8-72.2 70-.2 14.7 4 28.5 11.5 39.9l128.8-55.1c-7.2-30.9-34.8-54.2-68.1-54.8zm-42.7 75.6c-.2-1.6-.3-3.3-.3-5 .4-23.1 19.4-41.6 42.5-41.2 12.6.2 23.8 5.9 31.3 14.9zm151.3-107.6v137.3l23.8 9.9-11.3 27.1-23.6-9.8c-5.3-2.3-8.9-5.8-11.6-9.8-2.6-4-4.6-9.6-4.6-17v-137.7z"/><path d="m267.5 64c4.2-1.4 8.6-2.1 13.3-2.1 20.3 0 37.1 14.4 41 33.5l28.7-5.9c-6.6-32.5-35.3-56.9-69.7-56.9-7.9 0-15.5 1.3-22.5 3.6zm-33.9 92.9 19.4-21.9c-8.7-7.7-14.1-18.9-14.1-31.4s5.5-23.7 14.1-31.3l-19.4-21.9c-14.7 13-24 32.1-24 53.3s9.3 40.2 24 53.2zm88.2-44.8c-3.9 19.1-20.8 33.5-41 33.5-4.6 0-9.1-.8-13.3-2.2l-9.3 27.8c7.1 2.4 14.7 3.7 22.6 3.7 34.4 0 63.1-24.4 69.7-56.9z"/></g></g></svg>

<svg width="750" height="471" viewBox="0 0 750 471" version="1.1" xmlns="http://www.w3.org/2000/svg" xmlns:xlink="http://www.w3.org/1999/xlink">
    <!-- Generator: Sketch 48.2 (47327) - http://www.bohemiancoding.com/sketch -->
    <desc>Created with Sketch.</desc>
    <defs></defs>
    <g id="Page-1" stroke="none" stroke-width="1" fill="none" fill-rule="evenodd">
        <g id="elo" fill-rule="nonzero">
            <path d="M40,0 L710,0 C732.1,0 750,17.9 750,40 L750,431 C750,453.1 732.1,471 710,471 L40,471 C17.9,471 0,453.1 0,431 L0,40 C0,17.9 17.9,0 40,0 Z" id="Rectangle-1" fill="#000000"></path>
            <path d="M150.7,170.6 C157.5,168.3 164.8,167.1 172.4,167.1 C205.6,167.1 233.3,190.7 239.6,222 L286.6,212.4 C275.8,159.2 228.8,119.1 172.4,119.1 C159.5,119.1 147.1,121.2 135.5,125.1 L150.7,170.6 Z" id="Shape" fill="#FFF100"></path>
            <path d="M95.2,323 L127,287 C112.8,274.4 103.9,256.1 103.9,235.6 C103.9,215.2 112.8,196.8 127,184.3 L95.2,148.4 C71.1,169.8 55.9,200.9 55.9,235.7 C55.9,270.4 71.1,301.6 95.2,323 Z" id="Shape" fill="#00A3DF"></path>
            <path d="M239.6,249.4 C233.2,280.7 205.6,304.2 172.4,304.2 C164.8,304.2 157.5,303 150.6,300.7 L135.4,346.2 C147,350.1 159.5,352.2 172.4,352.2 C228.8,352.2 275.8,312.2 286.6,259 L239.6,249.4 Z" id="Shape" fill="#EE4023"></path>
            <g id="Group" transform="translate(342.000000, 148.000000)" fill="#FFFFFF">
                <path d="M101.2,133.6 C93.4,141.2 82.9,145.8 71.3,145.6 C63.3,145.5 55.9,143.1 49.7,139.1 L34.1,163.9 C44.8,170.6 57.3,174.6 70.9,174.8 C90.6,175.1 108.6,167.3 121.7,154.6 L101.2,133.6 Z M73,32.5 C33.8,31.9 1.4,63.3 0.8,102.5 C0.6,117.2 4.8,131 12.3,142.4 L141.1,87.3 C133.9,56.4 106.3,33.1 73,32.5 Z M30.3,108.1 C30.1,106.5 30,104.8 30,103.1 C30.4,80 49.4,61.5 72.5,61.9 C85.1,62.1 96.3,67.8 103.8,76.8 L30.3,108.1 Z M181.6,0.5 L181.6,137.8 L205.4,147.7 L194.1,174.8 L170.5,165 C165.2,162.7 161.6,159.2 158.9,155.2 C156.3,151.2 154.3,145.6 154.3,138.2 L154.3,0.5 L181.6,0.5 Z" id="Shape"></path>
                <path d="M267.5,64 C271.7,62.6 276.1,61.9 280.8,61.9 C301.1,61.9 317.9,76.3 321.8,95.4 L350.5,89.5 C343.9,57 315.2,32.6 280.8,32.6 C272.9,32.6 265.3,33.9 258.3,36.2 L267.5,64 Z M233.6,156.9 L253,135 C244.3,127.3 238.9,116.1 238.9,103.6 C238.9,91.1 244.4,79.9 253,72.3 L233.6,50.4 C218.9,63.4 209.6,82.5 209.6,103.7 C209.6,124.9 218.9,143.9 233.6,156.9 Z M321.8,112.1 C317.9,131.2 301,145.6 280.8,145.6 C276.2,145.6 271.7,144.8 267.5,143.4 L258.2,171.2 C265.3,173.6 272.9,174.9 280.8,174.9 C315.2,174.9 343.9,150.5 350.5,118 L321.8,112.1 Z" id="Shape"></path>
            </g>
        </g>
    </g>
</svg>
